X:1
T:Lord Mayo
C:David Murphy
Z:Origianlly a harp tune. David Murphy was harper to Lord Mayo
E:12
I:speed 325
R:march
M:2/4
K:G
A2G2 A2B2|e4 edBd|e2A2 A2BA|GAGF E2D2|A2G2 A2Bd|e3f g3f|e3f gdBG|A8:|
|:a4 gega|b4 b2ag|e2d2 deg2|G3A G2E2|1 a4 gega|b4 b2ag|e2d2 deg2|a8:|2 A3B d3B|AGAB g4|e3f gdBG|A8|]
